X:106
T:La Grande gigue simple
Z:robin.beech@mcgill.ca
R:brandy
S:Donald Farmer
M:3/4
L:1/16
K:D
A,DDE FDCD EGFD | A,DDE FDDB AGFD | A,DDE FDCD EGFD |
A,DDE FDDB AGFD | A,DDE FDCD EGFD | A,DDE FDDB AGFA |
dfed cABc eece | dfed cAdB AAFA | dfed cABc eece |
defd gdfd ecAc | dfed cABc eece | dfed cAdB AAFA |
dfed cABc eece | defe gdfd ecAc | defd gdfd ecAc |
defg afdf ecAc | defg afdf ecAc | defg afdB AGFD |]

